src/assets/icons/grants.svg

<svg xmlns="http://www.w3.org/2000/svg" width="59" height="56" viewBox="0 0 59 56" xmlns:xlink="http://www.w3.org/1999/xlink">
  <defs>
    <polygon id="a" points="0 55.885 58.789 55.885 58.789 0 0 0"/>
  </defs>
  <g fill="none" fill-rule="evenodd">
    <path fill="#236133" d="M11.1338,44.2325 C11.1338,44.2325 15.8108,37.6255 18.0868,37.4715 C20.3698,37.3215 27.4958,37.4385 27.4958,37.4385 C27.4958,37.4385 29.9848,36.9225 32.0878,35.5975 C35.1258,33.6755 37.7628,30.1165 39.7888,32.5475 C42.3228,35.3845 35.9898,40.4485 34.4708,41.9675 C32.9488,43.4885 42.1538,42.7375 44.5058,42.0865 C46.8558,41.4335 57.9298,32.6795 58.7888,39.1215 C57.4218,41.8005 40.8508,52.8845 31.8848,52.8845 L11.2118,52.8845 L11.1338,44.2325 L11.1338,44.2325 Z"/>
    <mask id="b" fill="white">
      <use xlink:href="#a"/>
    </mask>
    <polygon fill="#236133" points="0 55.885 10 55.885 10 40.885 0 40.885" mask="url(#b)"/>
    <path fill="#63A541" d="M40.2412,1.752 L30.4112,0 L28.6332,9.981 C28.6332,9.981 25.6702,26.614 42.0542,29.533 L48.6072,30.701 C48.6072,30.701 48.8592,24.508 40.1902,12.827 C40.1902,12.827 50.5052,19.587 51.8842,31.285 L53.6622,21.305 C53.6622,21.305 56.6252,4.671 40.2412,1.752" mask="url(#b)"/>
  </g>
</svg>

<svg xmlns="http://www.w3.org/2000/svg" width="59" height="56" xmlns:xlink="http://www.w3.org/1999/xlink"><defs><path id="a" d="M0 55.885h58.789V0H0z"/></defs><g fill="none" fill-rule="evenodd"><path fill="#236133" d="M11.134 44.233s4.677-6.607 6.953-6.761c2.283-.15 9.409-.034 9.409-.034s2.489-.516 4.592-1.84c3.038-1.922 5.675-5.482 7.7-3.05 2.535 2.837-3.798 7.9-5.317 9.42-1.522 1.52 7.683.77 10.035.118 2.35-.652 13.424-9.407 14.283-2.965-1.367 2.68-17.938 13.764-26.904 13.764H11.212l-.078-8.652z"/><mask id="b" fill="#fff"><use xlink:href="#a"/></mask><path fill="#236133" mask="url(#b)" d="M0 55.885h10v-15H0z"/><path fill="#63A541" d="M40.241 1.752L30.411 0l-1.778 9.981S25.67 26.614 42.054 29.533l6.553 1.168s.252-6.193-8.417-17.874c0 0 10.315 6.76 11.694 18.458l1.778-9.98s2.963-16.634-13.42-19.553" mask="url(#b)"/></g></svg>
